src/components/ProductFeature/images/icons/user-sessions.svg

<svg width="18" height="18" viewBox="0 0 18 18" fill="none" xmlns="http://www.w3.org/2000/svg">
<circle cx="9" cy="9" r="8" stroke="#A970DC" stroke-width="2"/>
<path d="M10 5.21973C10 4.66744 9.55228 4.21973 9 4.21973C8.44772 4.21973 8 4.66744 8 5.21973H10ZM9 9.55901H8C8 10.1113 8.44772 10.559 9 10.559V9.55901ZM12.375 10.559C12.9273 10.559 13.375 10.1113 13.375 9.55901C13.375 9.00673 12.9273 8.55901 12.375 8.55901V10.559ZM8 5.21973V9.55901H10V5.21973H8ZM9 10.559H12.375V8.55901H9V10.559Z" fill="#A970DC"/>
</svg>

<svg fill="none" viewBox="0 0 18 18"><circle cx="9" cy="9" r="8" stroke="#A970DC" stroke-width="2"/><path fill="#A970DC" d="M10 5.22a1 1 0 10-2 0h2zM9 9.559H8a1 1 0 001 1v-1zm3.375 1a1 1 0 100-2v2zM8 5.219v4.34h2v-4.34H8zm1 5.34h3.375v-2H9v2z"/></svg>
